Adwaita++/status/16/network-cellular-edge.svg

<svg height="16" width="16" xmlns="http://www.w3.org/2000/svg">
  <path d="m2.062 0c-1.15 0-2.062.912-2.062 2.063v11.874c0 1.151.912 2.063 2.062 2.063h11.875c1.151 0 2.063-.912 2.063-2.063v-11.874c0-1.152-.912-2.063-2.063-2.063zm3.938 3h6v2h-6v2h6v2h-6v2h6v2h-6c-.625 0-.994-.241-1.344-.563-.33-.304-.644-.79-.625-1.437h-.031v-6h.031c-.013-.475.11-1 .469-1.406.354-.401.934-.583 1.5-.563z" fill="#474747"/>
</svg>

<svg xmlns="http://www.w3.org/2000/svg" width="16" height="16">
    <path d="M2.062 0C.912 0 0 .912 0 2.063v11.874C0 15.088.912 16 2.062 16h11.875C15.088 16 16 15.088 16 13.937V2.063C16 .911 15.088 0 13.937 0zM6 3h6v2H6v2h6v2H6v2h6v2H6c-.625 0-.994-.241-1.344-.563-.33-.304-.644-.79-.625-1.437H4V5h.031c-.013-.475.11-1 .469-1.406.354-.401.934-.583 1.5-.563z" style="marker:none" color="#bebebe" overflow="visible" fill="#474747"/>
</svg>
